X:665
T:Reel 665
M:4/4
K:Ador
L:1/8
D|EFA,B, C2AF|EDEF GA,CD|EDEF GAAF|GEDC B,G,G,|E|EAAG EAAG|EAAB cBcA|EFEF GFGE|BeEF BAAB|EAAG EGGD|EAAB cBcd|edcB cBAG|EDEF GEA|
